X: 36815
T: Shetland Turtle, The
R: reel
M: 4/4
K: Aminor
EABA cABA|EABA cABA|de e/e/e gedB|GABd e2 dB|
eABA cABA|EABA cABA|de e/e/e gedB|GABd BA A/A/A:|
|:A2 za geag|e^fge dBAF|G2 eG cGeG|de e/e/e gedB|
A2 za geag|e^fge dBAF|GA B/^c/d gedB|GABd BA A/A/A:|

